X:1
T:Morning Tea
T:Morning Tea
T:© Paul Gitlitz 2002
C:© Paul Gitlitz 2002
L:1/8
Q:1/4=132
M:2/4
K:Bmin
V:1 treble 
V:1
"Bm" B/c/d/e/ vfb |"Bm" fe"F#m" vcA |"F#m" A/B/c/d/"A" ved |"A" ca"Bm" vb2 |"Bm" B/c/d/e/ vfb | %5
"Bm" fe"F#m" vcA |"F#m" A/B/c/d/"A" ved |"A"{cd} cA"Bm" vB2 ::"Bm" F/B/d/B/"F#m" vcA | %9
"A" cA"Bm" vBF |"Bm" F/B/d/B/"F#m" vce |"A" cA"Bm" vB2 |"Bm" F/B/d/B/"F#m" vcA |"A" cA"Bm" vBF |1 %14
"Bm" F/B/d/f/"F#m" ved |"A"{cd} cA"Bm" vB2 :|2"Bm" F/B/d/f/"A" ved |"F#m" ca"Bm" vb2 |] %18

